X:915
T: Sporting Days of Easter
T: Laethanta Spraoi na C\'asca
S: B.Breathnach: "Ceol Rince na hEireann" II/281
Z: B.Black
L: 1/8
M: 4/4
R: reel
K: Dmix
d2 cA GEEE|ABAG A2-A2|d2 cA GEEE|A2 GE D2-D2|
d2 cA GEEE|ABAG A2 Bd|d2 cA GEEE|A2 GE D2-D2 ||
c2 cd ef g2|eaag efge|c2 cd ef g2|abge d2-d2|
c2 cd ef g2|eaag ef g2|fged cAGc|Addd dfed ||

